files/resources/svgs/general/o-list-bullet.svg

<svg width="24" height="24" viewBox="0 0 24 24" fill="none" xmlns="http://www.w3.org/2000/svg">
<path d="M8.25 6.75H20.25M8.25 12H20.25M8.25 17.25H20.25M3.75 6.75H3.7575V6.7575H3.75V6.75ZM4.125 6.75C4.125 6.95711 3.95711 7.125 3.75 7.125C3.54289 7.125 3.375 6.95711 3.375 6.75C3.375 6.54289 3.54289 6.375 3.75 6.375C3.95711 6.375 4.125 6.54289 4.125 6.75ZM3.75 12H3.7575V12.0075H3.75V12ZM4.125 12C4.125 12.2071 3.95711 12.375 3.75 12.375C3.54289 12.375 3.375 12.2071 3.375 12C3.375 11.7929 3.54289 11.625 3.75 11.625C3.95711 11.625 4.125 11.7929 4.125 12ZM3.75 17.25H3.7575V17.2575H3.75V17.25ZM4.125 17.25C4.125 17.4571 3.95711 17.625 3.75 17.625C3.54289 17.625 3.375 17.4571 3.375 17.25C3.375 17.0429 3.54289 16.875 3.75 16.875C3.95711 16.875 4.125 17.0429 4.125 17.25Z" stroke="#0F172A" stroke-width="1.5" stroke-linecap="round" stroke-linejoin="round"/>
</svg>

<svg xmlns="http://www.w3.org/2000/svg" fill="none" viewBox="0 0 24 24" stroke-width="1.5" stroke="currentColor" aria-hidden="true">
  <path stroke-linecap="round" stroke-linejoin="round" d="M8.25 6.75h12M8.25 12h12m-12 5.25h12M3.75 6.75h.007v.008H3.75V6.75zm.375 0a.375.375 0 11-.75 0 .375.375 0 01.75 0zM3.75 12h.007v.008H3.75V12zm.375 0a.375.375 0 11-.75 0 .375.375 0 01.75 0zm-.375 5.25h.007v.008H3.75v-.008zm.375 0a.375.375 0 11-.75 0 .375.375 0 01.75 0z"/>
</svg>
